copytrade/img/icons/team2.svg

<svg width="40" height="40" viewBox="0 0 40 40" fill="none" xmlns="http://www.w3.org/2000/svg">
<path d="M9.63602 32.0833H22.0304C22.9712 32.0833 23.7116 31.3028 23.5241 30.3808C23.0066 27.8353 21.3161 23.3333 15.8332 23.3333C10.3504 23.3333 8.65997 27.8353 8.14237 30.3808C7.95489 31.3028 8.69519 32.0833 9.63602 32.0833Z" fill="#646E82" stroke="#646E82" stroke-width="2.5" stroke-linecap="round" stroke-linejoin="round"/>
<path d="M31.7065 29.4933C31.1337 26.9132 29.7147 23.3333 26.25 23.3333C28.3333 25.8333 29.4615 29.9364 27.9167 32.0833C28.5119 32.1816 29.4615 32.0833 29.4615 32.0833C30.8888 32.0833 32.0158 30.8867 31.7065 29.4933Z" fill="#646E82" stroke="#646E82" stroke-width="2.5" stroke-linecap="round" stroke-linejoin="round"/>
<path d="M15.8333 17.0833C18.3646 17.0833 20.4167 15.0313 20.4167 12.5C20.4167 9.9687 18.3646 7.91667 15.8333 7.91667C13.302 7.91667 11.25 9.9687 11.25 12.5C11.25 15.0313 13.302 17.0833 15.8333 17.0833Z" fill="#646E82" stroke="#646E82" stroke-width="2.5" stroke-linecap="round" stroke-linejoin="round"/>
<path d="M24.5833 17.0833C27.1146 17.0833 28.75 15.0313 28.75 12.5C28.75 9.96871 27.1146 7.91667 24.5833 7.91667C25.8333 11.6667 25.8333 13.3333 24.5833 17.0833Z" fill="#646E82" stroke="#646E82" stroke-width="2.5" stroke-linecap="round" stroke-linejoin="round"/>
</svg>

<svg width="40" height="40" fill="none" xmlns="http://www.w3.org/2000/svg"><path d="M9.636 32.083H22.03c.941 0 1.682-.78 1.494-1.702-.517-2.546-2.208-7.048-7.69-7.048-5.484 0-7.174 4.502-7.692 7.048-.187.922.553 1.702 1.494 1.702zm22.07-2.59c-.572-2.58-1.991-6.16-5.456-6.16 2.083 2.5 3.212 6.603 1.667 8.75.595.099 1.544 0 1.544 0 1.428 0 2.555-1.196 2.245-2.59zm-15.873-12.41a4.583 4.583 0 100-9.166 4.583 4.583 0 000 9.166zm8.75 0c2.532 0 4.167-2.052 4.167-4.583s-1.635-4.583-4.167-4.583c1.25 3.75 1.25 5.416 0 9.166z" fill="#646E82" stroke="#646E82" stroke-width="2.5" stroke-linecap="round" stroke-linejoin="round"/></svg>
